resources/haticons/SVG/reason1.svg

<!-- Generated by IcoMoon.io -->
<svg version="1.1" xmlns="http://www.w3.org/2000/svg" width="24" height="24" viewBox="0 0 24 24">
<title>reason1</title>
<path fill="#dd4b39" d="M0 0v24h24v-24zM11.52 21.89l-1.33-2.54h-1.79v2.54h-2.4v-9.2h4.13c2.44 0 3.83 1.19 3.83 3.24 0 1.39-0.58 2.4-1.64 2.96l1.92 3zM22.88 21.89h-7.38v-9.2h7.24v1.92h-4.84v1.72h4.38v1.9l-4.38 0.010v1.73h4.99zM11.68 16c0 0.93-0.56 1.43-1.53 1.43h-1.75v-2.82h1.75c0.97 0 1.53 0.49 1.53 1.39z"></path>
</svg>

<svg xmlns="http://www.w3.org/2000/svg" width="24" height="24"><path fill="#dd4b39" d="M0 0v24h24V0zm11.52 21.89l-1.33-2.54H8.4v2.54H6v-9.2h4.13c2.44 0 3.83 1.19 3.83 3.24 0 1.39-.58 2.4-1.64 2.96l1.92 3zm11.36 0H15.5v-9.2h7.24v1.92H17.9v1.72h4.38v1.9l-4.38.01v1.73h4.99zM11.68 16c0 .93-.56 1.43-1.53 1.43H8.4v-2.82h1.75c.97 0 1.53.49 1.53 1.39z"/></svg>
